context/brand-context/default/img/icons/download-file.svg

<svg id="i-download-file" viewBox="0 0 18 18" xmlns="http://www.w3.org/2000/svg"><path d="m10.0046024 0c.5497429 0 1.3179837.32258606 1.707238.71184039l4.5763192 4.57631922c.3931386.39313859.7118404 1.16760135.7118404 1.71431368v8.98899651c0 1.1092806-.8945138 2.0085302-1.9940603 2.0085302h-12.01187942c-1.10128908 0-1.99406028-.8926228-1.99406028-1.9950893v-14.00982141c0-1.10185739.88743329-1.99508929 1.99961498-1.99508929zm0 1h-7.00498742c-.55709576 0-.99961498.44271433-.99961498.99508929v14.00982141c0 .5500396.44491393.9950893.99406028.9950893h12.01187942c.5463747 0 .9940603-.4506622.9940603-1.0085302v-8.98899651c0-.28393444-.2150684-.80332809-.4189472-1.0072069l-4.5763192-4.57631922c-.2038461-.20384606-.718603-.41894717-1.0001312-.41894717zm-1.5046024 4c.27614237 0 .5.21637201.5.49209595v6.14827645l1.7462789-1.77990922c.1933927-.1971171.5125222-.19455839.7001689-.0069117.1932998.19329992.1910058.50899492-.0027774.70277812l-2.59089271 2.5908927c-.19483374.1948337-.51177825.1937771-.70556873-.0000133l-2.59099079-2.5909908c-.19484111-.1948411-.19043735-.5151448-.00279066-.70279146.19329987-.19329987.50465175-.19237083.70018565.00692852l1.74638684 1.78001764v-6.14827695c0-.27177709.23193359-.49209595.5-.49209595z" fill="currentColor" fill-rule="evenodd"/></svg>

<svg id="i-download-file" viewBox="0 0 18 18" xmlns="http://www.w3.org/2000/svg"><path d="M10.005 0c.55 0 1.318.323 1.707.712l4.576 4.576c.393.393.712 1.168.712 1.714v8.99C17 17.1 16.105 18 15.006 18H2.994A1.994 1.994 0 0 1 1 16.005V1.995C1 .893 1.887 0 3 0zm0 1H3c-.557 0-1 .443-1 .995v14.01c0 .55.445.995.994.995h12.012c.546 0 .994-.45.994-1.009V7.002c0-.283-.215-.803-.419-1.007L11.005 1.42c-.204-.204-.719-.419-1-.419zM8.5 5c.276 0 .5.216.5.492v6.148l1.746-1.78a.497.497 0 0 1 .7-.006.498.498 0 0 1-.002.702l-2.591 2.591a.5.5 0 0 1-.706 0l-2.59-2.59a.502.502 0 0 1-.004-.704.49.49 0 0 1 .7.007L8 11.64V5.492C8 5.22 8.232 5 8.5 5z" fill="currentColor" fill-rule="evenodd"/></svg>
